X: 4041
T: BONNIE KATE
R: Reel.
%R: reel
B: James Kerr "Merry Melodies" v.4 p.07 #41
Z: 2016 John Chambers <jc:trillian.mit.edu>
M: C|
L: 1/8
K: D
(3(udcB) |\
AFdA (3(Bcd) (AF) | DFAF EDEF |\
AFAc BGBd | (3(cBA) (Bc) {e}dcdB |\
Adcd BdAF | DFAF EDEF |\
AFAc BGBd | (3(cBA) (Bc) defg ||
agfd (3(fga) (fd) | fagf e^def |\
{a}gfga gbag | fedc defg |\
a2(fd) (3(fga) (fd) | fagf edef |\
g2({a}gf) gbag | {g}fedc d2 |]

%%sep 1 1 500
%%sep 1 1 500

